X:1
T:Title
%%score { 1 | 2 }
L:1/8
M:4/4
K:F
V:1 treble nm="Grand Piano"
V:2 bass 
V:1
 z4 z2[Q:1/4=96] F2 | AAGF B B2 [EG] | [EB][EB][EA]G c3 c | dcBA [FG][=B,F][B,E][B,F] | G6 F2 | %5
 AAGF B B2 G | [EB][EB][EA]G c3 c | [^Fd][Fc][FB][FA] [Dc][DB][D=F][DB] |[M:3/4] A2 G2 F2 | %9
[M:1/4] c2 |[M:4/4] cc=Bc d2 c2 | [B,CE]6 [Ec]2 | [Ec][Ec][E=B][Ec] [Ed]2 [CEc]2 | [CFA]6 F2 | %14
 AAGF B B2 [EG] | [EB][EB][EA]G c c2 c | [^Fd][Fc][FB][FA] [Dc][DB][D=F][DB] |[M:3/4] A2 G2 F2 |] %18
V:2
 z4 z2 [F,A,]2 | [F,CF][F,CF][F,B,C][F,A,C] [G,CE] [G,CE]2 [C,C] | %2
 [C,G,][C,G,][C,C][K:treble][B,CE] [A,CF]3 [A,CF] | %3
 [B,F][A,CF][G,CF][K:bass][F,CF] [D,=B,][D,G,][G,,G,][G,,F,] | [C,E,B,]6 [F,A,]2 | %5
 [F,C][F,C][F,B,C][F,A,C] [G,CE] [G,CE]2 [G,CE] | %6
 [C,G,][C,G,][C,C][K:treble][B,CE] [A,CF]3[K:bass] [F,A,F] | %7
 [D,A,][D,A,][D,D][D,C] [G,B,][G,B,][B,,B,][B,,F,] |[M:3/4] [C,F,C]2 [C,B,C]2 [F,A,C]2 | %9
[M:1/4] [F,A,F]2 |[M:4/4] [F,A,F][F,A,F][F,_A,F][F,=A,F] [F,B,F]2 [F,A,F]2 | G,C,E,G, C,2 [C,G,]2 | %12
 [C,G,][C,G,][C,G,][C,G,] [C,G,]2 C,2 | F,F,G,A, F,2 [F,A,]2 | %14
 [F,C][F,C][F,B,C][F,A,C] [G,CE] [G,CE]2 [C,C] | %15
 [C,G,][C,G,][C,C][K:treble][B,CE] [A,CF] [A,CF]2[K:bass] [F,A,F] | %16
 [D,A,][D,A,][D,D][D,C] [G,B,][G,B,][B,,B,][B,,F,] |[M:3/4] [C,F,C]2 [C,B,C]2 [F,A,C]2 |] %18

